configs/network-icons/etherlink-dark.svg

<svg width="30" height="30" viewBox="0 0 30 30" fill="none" xmlns="http://www.w3.org/2000/svg">
<path d="M15 1C7.26775 1 1 7.2685 1 15C1 22.7315 7.2685 29 15 29C22.7315 29 29 22.7315 29 15C29 7.2685 22.7315 1 15 1ZM15 26.5219C8.6367 26.5219 3.47814 21.3633 3.47814 15C3.47814 8.6367 8.6367 3.47814 15 3.47814C21.3633 3.47814 26.5219 8.6367 26.5219 15C26.5219 21.3633 21.3633 26.5219 15 26.5219Z" fill="url(#paint0_linear_11220_6267)"/>
<path d="M14.9232 7.30139C10.6872 7.34319 7.25362 10.8529 7.3014 15.0889C7.31334 16.1719 7.54921 17.2013 7.96572 18.1336C8.02767 18.2731 8.21278 18.3045 8.31878 18.1948L10.0162 16.4429C10.1266 16.3287 10.1722 16.1675 10.1401 16.0115C10.0729 15.6853 10.0378 15.3479 10.0378 15.0015C10.0378 12.2599 12.2599 10.0378 15.0008 10.0378C15.2815 10.0378 15.5561 10.0609 15.8234 10.1057C16.0025 10.1356 16.1854 10.0789 16.3115 9.94823L17.9999 8.20681C18.0985 8.10455 18.0641 7.93436 17.9328 7.88062C17.0064 7.4992 15.9898 7.29244 14.9232 7.30289V7.30139Z" fill="url(#paint1_linear_11220_6267)"/>
<path d="M15.0762 22.7084C19.3122 22.6666 22.7457 19.1568 22.698 14.9209C22.686 13.8378 22.4501 12.8085 22.0336 11.8762C21.9717 11.7366 21.7866 11.7053 21.6806 11.815L19.9832 13.5668C19.8727 13.6811 19.8272 13.8423 19.8593 13.9983C19.9265 14.3245 19.9616 14.6619 19.9616 15.0082C19.9616 17.7498 17.7394 19.9719 14.9986 19.9719C14.7179 19.9719 14.4432 19.9488 14.176 19.904C13.9968 19.8742 13.814 19.9309 13.6878 20.0615L11.9994 21.8029C11.9009 21.9052 11.9352 22.0754 12.0666 22.1291C12.9929 22.5105 14.0095 22.7173 15.0762 22.7069V22.7084Z" fill="url(#paint2_linear_11220_6267)"/>
<path d="M11.0338 16.5218L7.80051 19.7551C7.14435 20.4113 7.14435 21.4752 7.80051 22.1313C8.45667 22.7875 9.52052 22.7875 10.1767 22.1313L13.41 18.898C14.0662 18.2418 14.0662 17.178 13.41 16.5218C12.7539 15.8657 11.69 15.8657 11.0338 16.5218Z" fill="url(#paint3_linear_11220_6267)"/>
<path d="M19.7531 7.82297L16.5198 11.0563C15.8636 11.7125 15.8636 12.7763 16.5198 13.4325C17.1759 14.0886 18.2398 14.0886 18.8959 13.4325L22.1293 10.1991C22.7854 9.54298 22.7854 8.47913 22.1293 7.82297C21.4731 7.16681 20.4092 7.16681 19.7531 7.82297Z" fill="url(#paint4_linear_11220_6267)"/>
<defs>
<linearGradient id="paint0_linear_11220_6267" x1="1" y1="15" x2="40.0867" y2="15" gradientUnits="userSpaceOnUse">
<stop stop-color="#38FF9C"/>
<stop offset="1" stop-color="#171717"/>
</linearGradient>
<linearGradient id="paint1_linear_11220_6267" x1="7.30065" y1="12.7802" x2="22.0053" y2="12.7802" gradientUnits="userSpaceOnUse">
<stop stop-color="#38FF9C"/>
<stop offset="1" stop-color="#171717"/>
</linearGradient>
<linearGradient id="paint2_linear_11220_6267" x1="11.9427" y1="17.2296" x2="26.5674" y2="17.2296" gradientUnits="userSpaceOnUse">
<stop stop-color="#38FF9C"/>
<stop offset="1" stop-color="#171717"/>
</linearGradient>
<linearGradient id="paint3_linear_11220_6267" x1="7.30824" y1="19.327" x2="18.3987" y2="19.327" gradientUnits="userSpaceOnUse">
<stop stop-color="#38FF9C"/>
<stop offset="1" stop-color="#171717"/>
</linearGradient>
<linearGradient id="paint4_linear_11220_6267" x1="16.0272" y1="10.6278" x2="26.26" y2="10.6278" gradientUnits="userSpaceOnUse">
<stop stop-color="#38FF9C"/>
<stop offset="1" stop-color="#171717"/>
</linearGradient>
</defs>
</svg>

<svg xmlns="http://www.w3.org/2000/svg" fill="none" viewBox="0 0 30 30">
  <path fill="url(#etherlink-dark_svg__a)" d="M15 1C7.268 1 1 7.269 1 15c0 7.732 6.269 14 14 14 7.732 0 14-6.268 14-14 0-7.731-6.268-14-14-14Zm0 25.522C8.637 26.522 3.478 21.363 3.478 15S8.637 3.478 15 3.478 26.522 8.637 26.522 15 21.363 26.522 15 26.522Z"/>
  <path fill="url(#etherlink-dark_svg__b)" d="M14.923 7.301c-4.236.042-7.67 3.552-7.622 7.788a7.653 7.653 0 0 0 .665 3.045c.062.14.247.17.353.06l1.697-1.751a.48.48 0 0 0 .124-.431 4.963 4.963 0 0 1 5.683-5.906.55.55 0 0 0 .488-.158L18 8.207a.201.201 0 0 0-.067-.326 7.687 7.687 0 0 0-3.01-.578V7.3Z"/>
  <path fill="url(#etherlink-dark_svg__c)" d="M15.076 22.708c4.236-.041 7.67-3.551 7.622-7.787a7.654 7.654 0 0 0-.664-3.045.216.216 0 0 0-.353-.061l-1.698 1.752a.48.48 0 0 0-.124.431 4.963 4.963 0 0 1-5.683 5.906.55.55 0 0 0-.488.157l-1.689 1.742a.201.201 0 0 0 .068.326 7.688 7.688 0 0 0 3.01.578v.001Z"/>
  <path fill="url(#etherlink-dark_svg__d)" d="M11.034 16.522 7.8 19.755a1.68 1.68 0 0 0 2.376 2.376l3.233-3.233a1.68 1.68 0 1 0-2.376-2.376Z"/>
  <path fill="url(#etherlink-dark_svg__e)" d="m19.753 7.823-3.233 3.233a1.68 1.68 0 1 0 2.376 2.377l3.233-3.234a1.68 1.68 0 0 0-2.376-2.376Z"/>
  <defs>
    <linearGradient id="etherlink-dark_svg__a" x1="1" x2="40.087" y1="15" y2="15" gradientUnits="userSpaceOnUse">
      <stop stop-color="#38FF9C"/>
      <stop offset="1" stop-color="#171717"/>
    </linearGradient>
    <linearGradient id="etherlink-dark_svg__b" x1="7.301" x2="22.005" y1="12.78" y2="12.78" gradientUnits="userSpaceOnUse">
      <stop stop-color="#38FF9C"/>
      <stop offset="1" stop-color="#171717"/>
    </linearGradient>
    <linearGradient id="etherlink-dark_svg__c" x1="11.943" x2="26.567" y1="17.23" y2="17.23" gradientUnits="userSpaceOnUse">
      <stop stop-color="#38FF9C"/>
      <stop offset="1" stop-color="#171717"/>
    </linearGradient>
    <linearGradient id="etherlink-dark_svg__d" x1="7.308" x2="18.399" y1="19.327" y2="19.327" gradientUnits="userSpaceOnUse">
      <stop stop-color="#38FF9C"/>
      <stop offset="1" stop-color="#171717"/>
    </linearGradient>
    <linearGradient id="etherlink-dark_svg__e" x1="16.027" x2="26.26" y1="10.628" y2="10.628" gradientUnits="userSpaceOnUse">
      <stop stop-color="#38FF9C"/>
      <stop offset="1" stop-color="#171717"/>
    </linearGradient>
  </defs>
</svg>
